Cawnonical Mono-Glyph Icon Suite/packaged/Cawnonical Mono-Glyph Icon Suite Teal/apps/glyphs/ardour.svg

<svg height="48" width="48" xmlns="http://www.w3.org/2000/svg"><path fill="rgb(50, 190, 200)" d="m1.865 40.293 20.811-37.881c.264-.481.769-.779 1.317-.778s1.052.3 1.315.781l20.654 37.845c.262.482.241 1.068-.055 1.529-.296.462-.82.725-1.367.686 0 0-1.96-.138-4.679-.257-1.194-.058-1.65-.025-2.591-.135-.851-.1-2.113-.324-5.019-.863-4.614-.892-7.691-2.629-13.339-2.415-6.407.085-15.177 3.607-15.177 3.607-.458.181-.975.126-1.384-.147l-.003-.002c-.648-.432-.858-1.288-.483-1.97zm13.284-14.209c.078-.018.159-.031.24-.036.091-.007.181-.005.27.005.221-.613.57-1.219.954-1.617.188-.097.395-.153.606-.165.097.019.205.046.317.079.034-.064.068-.125.103-.177.203-.302.904-.649 1.386-.789.282.06.646.187.948.342.284-.158.619-.294.889-.368.51.148 1.244.516 1.439.826.031.051.062.108.092.17.088-.033.173-.062.253-.086.459.104 1.156.399 1.385.69.172.217.341.589.414.828 0 .003.001.006.002.008.009-.002.018-.003.027-.005.423.121 1.062.423 1.275.698.163.21.328.566.398.795.054.175.099.384.135.607.42.128 1.018.411 1.21.662.148.193.298.523.358.72.032.105.061.225.086.352.016-.003.032-.006.048-.009.381.075.996.295 1.223.526.179.183.374.521.45.717.062.162.115.363.156.57.343.059.776.183.974.341.204.162.443.494.532.679.105.218.189.52.243.789.508.127 1.169.428 1.396.733.145.196.275.485.358.73.047-.01.092-.019.134-.026.432.103 1.083.386 1.312.662.064.077.126.172.183.272.124-.032.245-.058.353-.076.543.207 1.161.602 1.443.927.191-.083.388-.154.57-.203.426.132.839.329 1.174.527l-14.521-26.878z"/></svg>

<?xml version="1.0" encoding="utf-8"?>
<svg height="48" width="48" xmlns="http://www.w3.org/2000/svg">
  <path fill="rgb(50, 190, 200)" d="M 1.865 40.293 L 22.676 2.412 C 22.94 1.931 23.445 1.633 23.993 1.634 C 24.541 1.635 25.045 1.934 25.308 2.415 L 45.962 40.26 C 46.224 40.742 46.203 41.328 45.907 41.789 C 45.611 42.251 45.087 42.514 44.54 42.475 C 44.54 42.475 42.58 42.337 39.861 42.218 C 38.667 42.16 38.211 42.193 37.27 42.083 C 36.419 41.983 35.157 41.759 32.251 41.22 C 27.637 40.328 24.56 38.591 18.912 38.805 C 12.505 38.89 3.735 42.412 3.735 42.412 C 3.277 42.593 2.76 42.538 2.351 42.265 L 2.348 42.263 C 1.7 41.831 1.49 40.975 1.865 40.293 Z M 15.149 26.084 C 15.227 26.066 16.229 24.834 16.613 24.436 C 16.801 24.339 17.604 24.225 17.639 24.173 C 17.842 23.871 18.543 23.524 19.025 23.384 C 19.307 23.444 19.671 23.571 19.973 23.726 C 20.257 23.568 20.592 23.432 20.862 23.358 C 21.372 23.506 22.106 23.874 22.301 24.184 C 22.332 24.235 22.566 24.292 22.646 24.268 C 23.105 24.372 23.802 24.667 24.031 24.958 C 24.203 25.175 24.372 25.547 24.445 25.786 C 24.445 25.789 24.446 25.792 24.447 25.794 C 24.456 25.792 24.465 25.791 24.474 25.789 C 24.897 25.91 25.536 26.212 25.749 26.487 C 25.912 26.697 26.077 27.053 26.147 27.282 C 26.201 27.457 26.246 27.666 26.282 27.889 C 26.702 28.017 27.3 28.3 27.492 28.551 C 27.64 28.744 27.911 29.496 27.936 29.623 C 27.952 29.62 28.98 29.909 29.207 30.14 C 29.386 30.323 29.772 31.22 29.813 31.427 C 30.156 31.486 30.589 31.61 30.787 31.768 C 30.991 31.93 31.508 32.967 31.562 33.236 C 32.07 33.363 32.731 33.664 32.958 33.969 C 33.103 34.165 33.408 34.68 33.45 34.673 C 33.882 34.776 34.533 35.059 34.762 35.335 C 34.826 35.412 35.19 35.549 35.298 35.531 C 35.841 35.738 36.459 36.133 36.741 36.458 C 36.932 36.375 37.129 36.304 37.311 36.255 C 37.737 36.387 38.15 36.584 38.485 36.782 L 23.964 9.904 L 15.149 26.084 Z"/>
</svg>
